X:2
T:Skye Dance II
C:Alasdair Fraser
S:San Francisco Scottish Fiddlers Tune of the month, 10/90
Z:Steve Wyrick  2004-8-17 scots-l
L:1/8
M:C
K:A
|:"A"e2 ee fe ef|"D"af fe "A"e2e2|"D"ff a=g f2 ee|"D"fe    ed    d2d2|\
"D"af ff "A"a2 ee|"D"fe ed d2f2:|
  "A"e2 e2 ec c2|"A"cc dc    e2e2|"A"e2 e2  ec c2|"A"cc    dB    A2A2|
  "A"e2 e2 ec c2|"A"cc dc    e2e2|"A"e2 e2  ec c2|   cc "G"dB "A"A2A2|]
